X: 1321
T: Kırım'dan Gelirim
C: Kemal Altınkaya
O: Turkey
F: http://compmusic.upf.edu/node/140
N: gerdaniye--turku--nimcember--kirimdan_gelirim--rumeli
N: makam= gerdaniye
N: form= turku
N: usul= nimcember = 12/8
M: 12/8
L: 1/16
K: C _2/4B ^3/4f  
Q: 1/4=138
%%MIDI tuningsystem comma53
d2fg a2ac' bagf e3d edc=B c2z2  | z14  | \
w:  ARANAĞME  |  | 
g2g2g2g/f/ g/a/gf_3/4edcB  | 
w:   | 
c2c2cBc BcdB2BA  | d2d2d2A4d2d2  | A2A2AAA2AAA2z2  | 
w:   |   |   | 
z24  | d2fg a2ac' bagf e3d edc=B c2z2  | z14  | \
w:  |  ARANAĞME  |  | 
g2g2g2g/f/ g/a/gf_3/4edcB  | 
w:   | 
c2c2cBc BcdB2BA  | d2d2d2A4d2d2  | A2A2AAA2AAA2z2  | 
w:   |   |   | 
z24  | d2ef g2g3fgf g3f edef g2z2  | z14  | \
w:  |  Kı rım *  dan  ge *  li *  rim  *  ge *  li *  rim    |  | 
d2g2g2f3ea2gf  | 
w:  A dım  da  Si *  nan dır   | 
efg2=fed2cBA4  | g2g2g2g =ffeedd^c  | \
w:  hey  *  *  *  *  hey_ a *  man    |  a dım  da  Si *  *  *  nan *  dır   | 
d4efg fefg4  | 
w:  hey   SAZ  | 
z24  | d2ef g2g3fgf g3f edef g2z2  | z14  | \
w:  |  Kı rım *  dan  ge *  li *  rim  *  ge *  li *  rim    |  | 
d2g2g2f3ea2gf  | 
w:  A dım  da  Si *  nan dır   | 
efg2=fed2cBA4  | g2g2g2g =ffeedd^c  | \
w:  hey  *  *  *  *  hey_ a *  man    |  a dım  da  Si *  *  *  nan *  dır   | 
d4e2=f ed^cd4  | 
w:  hey   SAZ  | 
z24  | d2fg a2ac' bagf e3d edcB c2z2  | z14  | \
w:  |  Kı lın *  cı mın  *  *  *  su *  yu  *  yâr  *  su *  yu    |  | 
g2g2g2g/f/ g/a/gf_3/4edcB  | 
w:  Kan dır  da  du *  *  *  *  *  man *  *  dır   | 
c4B2c BcdB3A  | d2d2d2A4d2d2  | A12z2  | z24  | \
w:  hey   |  kan dır  da  du man dır   |  hey    |  | 
d2fg a2ac' bagf e3d edcB c2z2  | 
w:  Kı lın *  cı mın  *  *  *  su *  yu  *  yâr  *  su *  yu    | 
z14  | g2g2g2g/f/ g/a/gf_3/4edcB  | c4B2c BcdB3A  | 
w:  |  Kan dır  da  du *  *  *  *  *  man *  *  dır   |  hey   | 
d2d2d2A4d2d2  | A12z2  | |


